X: 163
T: Mrs Morthland's Reel
%R: reel
B: Urbani & Liston "A Selection of Scotch, English Irish, and Foreign Airs", Edinburgh 1800, p.62 #3
F: http://www.vwml.org/browse/browse-collections-dance-tune-books/browse-urbani1800
Z: 2014 John Chambers <jc:trillian.mit.edu>
N: The 2nd strain has initial repeat but no final repeat; not fixed.
M: C|
L: 1/8
K: C
g |\
{f}e2dc GBce | fdec fdec |\
e2dc GAce | egde c/c/c c :: f |\
ecce fddf | ecgc (B/c/d) BG |
ecce fddf | ecdB Tc2cf |\
ecce fddf | ecgc (B/c/d) BG |\
ecce fdgf | ecdB c2c |]

%%sep 1 1 500
%%sep 1 1 500
